theme/essential/pix_core/e/insert_col_after.svg

<!DOCTYPE svg PUBLIC "-//W3C//DTD SVG 1.1//EN" "http://www.w3.org/Graphics/SVG/1.1/DTD/svg11.dtd" [
	<!ENTITY ns_flows "http://ns.adobe.com/Flows/1.0/">
]><svg xmlns="http://www.w3.org/2000/svg" width="16" height="16" viewBox="-1 0 16 16" preserveAspectRatio="xMinYMid meet" overflow="visible" enable-background="new -1 0 16 16"><path d="M0 16v-9h9v9h-1v-8h-3v8h-1v-8h-3v8h-1zm13.8-6.8l1.2-2.2h-5l1.2 2.2 1.2 2.2 1.4-2.2zm-3.8-3.2h5v-6h-5v6z" fill="#999"/></svg>

<!DOCTYPE svg PUBLIC "-//W3C//DTD SVG 1.1//EN" "http://www.w3.org/Graphics/SVG/1.1/DTD/svg11.dtd" [
	<!ENTITY ns_flows "http://ns.adobe.com/Flows/1.0/">
]><svg xmlns="http://www.w3.org/2000/svg" width="16" height="16" viewBox="-1 0 16 16" preserveAspectRatio="xMinYMid meet" overflow="visible" enable-background="new -1 0 16 16"><path d="M0 16V7h9v9H8V8H5v8H4V8H1v8H0zm13.8-6.8L15 7h-5l1.2 2.2 1.2 2.2 1.4-2.2zM10 6h5V0h-5v6z" fill="#999"/></svg>
